src/assets/svg/icons/fa/nuevos/classic/thin/truck-pickup classic thin.svg

<svg xmlns="http://www.w3.org/2000/svg" viewBox="0 0 640 512"><!--! Font Awesome Pro 6.4.0 by @fontawesome - https://fontawesome.com License - https://fontawesome.com/license (Commercial License) Copyright 2023 Fonticons, Inc. --><path d="M240 72V192H493.8L387.3 57.1c-4.6-5.8-11.5-9.1-18.8-9.1H264c-13.3 0-24 10.7-24 24zM510.3 187l3.9 5H552c30.9 0 56 25.1 56 56V368h24c4.4 0 8 3.6 8 8s-3.6 8-8 8H608 592 560c0 53-43 96-96 96s-96-43-96-96H272c0 53-43 96-96 96s-96-43-96-96H48 32 8c-4.4 0-8-3.6-8-8s3.6-8 8-8H32V248c0-30.9 25.1-56 56-56H224V72c0-22.1 17.9-40 40-40H368.5c12.2 0 23.8 5.6 31.4 15.2L510.3 187zM48 368H81.3c7.6-45.4 47.1-80 94.7-80s87.1 34.6 94.7 80h98.7c7.6-45.4 47.1-80 94.7-80s87.1 34.6 94.7 80H592V248c0-22.1-17.9-40-40-40H88c-22.1 0-40 17.9-40 40V368zm208 16A80 80 0 1 0 96 384a80 80 0 1 0 160 0zm208 80a80 80 0 1 0 0-160 80 80 0 1 0 0 160z"/></svg>

<svg xmlns="http://www.w3.org/2000/svg" viewBox="0 0 640 512"><path d="M514.2 192H552C582.9 192 608 217.1 608 248V368H632C636.4 368 640 371.6 640 376C640 380.4 636.4 384 632 384H560C560 437 517 480 464 480C410.1 480 368 437 368 384H272C272 437 229 480 176 480C122.1 480 80 437 80 384H8C3.582 384 0 380.4 0 376C0 371.6 3.582 368 8 368H32V248C32 217.1 57.07 192 88 192H224V72C224 49.91 241.9 32 264 32H368.5C380.7 32 392.3 37.61 399.9 47.21L514.2 192zM240 192H493.8L387.3 57.13C382.8 51.36 375.8 48 368.5 48H264C250.7 48 240 58.75 240 72V192zM48 368H81.33C88.94 322.6 128.4 288 176 288C223.6 288 263.1 322.6 270.7 368H369.3C376.9 322.6 416.4 288 464 288C511.6 288 551.1 322.6 558.7 368H592V248C592 225.9 574.1 208 552 208H88C65.91 208 48 225.9 48 248V368zM176 304C131.8 304 96 339.8 96 384C96 428.2 131.8 464 176 464C220.2 464 256 428.2 256 384C256 339.8 220.2 304 176 304zM464 464C508.2 464 544 428.2 544 384C544 339.8 508.2 304 464 304C419.8 304 384 339.8 384 384C384 428.2 419.8 464 464 464z"/></svg>
